public/JONES CUSTOM HOMES ICON (2).svg

<svg xmlns="http://www.w3.org/2000/svg" xmlns:xlink="http://www.w3.org/1999/xlink" width="500" zoomAndPan="magnify" viewBox="0 0 375 374.999991" height="500" preserveAspectRatio="xMidYMid meet" version="1.0"><defs><clipPath id="d3654afe9d"><path d="M 91 139.902344 L 132 139.902344 L 132 328.902344 L 91 328.902344 Z M 91 139.902344 " clip-rule="nonzero"/></clipPath></defs><path fill="#ffffff" d="M 273.511719 194.597656 C 271.679688 196.921875 270.25 199.355469 269.222656 201.898438 L 269.222656 271.492188 C 270.167969 273.929688 271.417969 276.042969 272.972656 277.84375 C 276.472656 280.859375 278.703125 284.1875 279.90625 287.648438 L 279.90625 287.660156 C 281.421875 292.03125 281.277344 296.542969 279.960938 300.871094 C 278.691406 305.054688 276.324219 309.054688 273.328125 312.566406 C 268.726562 317.96875 262.566406 322.296875 256.585938 324.40625 C 256 324.648438 255.324219 324.691406 254.671875 324.480469 C 253.207031 324.003906 252.40625 322.429688 252.878906 320.96875 L 259.671875 300.238281 L 250.546875 296.957031 L 243.375 316.804688 C 243.191406 317.289062 242.878906 317.730469 242.4375 318.066406 C 241.214844 318.992188 239.472656 318.757812 238.542969 317.535156 C 234.78125 312.574219 232.3125 307.316406 231.148438 301.765625 C 229.980469 296.203125 230.121094 290.382812 231.5625 284.3125 L 231.570312 284.316406 C 231.710938 283.714844 232.050781 283.160156 232.574219 282.757812 C 235.484375 280.507812 237.9375 278.125 239.921875 275.605469 C 241.753906 273.285156 243.179688 270.847656 244.207031 268.308594 L 244.207031 198.710938 C 243.746094 197.511719 243.214844 196.410156 242.625 195.394531 C 241.984375 194.304688 241.261719 193.292969 240.457031 192.363281 C 236.960938 189.34375 234.726562 186.015625 233.527344 182.550781 L 233.527344 182.542969 C 232.007812 178.167969 232.152344 173.660156 233.46875 169.328125 C 234.742188 165.148438 237.105469 161.148438 240.101562 157.636719 C 244.703125 152.234375 250.867188 147.902344 256.839844 145.792969 C 257.433594 145.550781 258.105469 145.511719 258.761719 145.722656 C 260.222656 146.199219 261.023438 147.769531 260.546875 149.234375 L 253.757812 169.964844 L 262.882812 173.246094 L 270.058594 153.398438 C 270.238281 152.914062 270.554688 152.472656 270.996094 152.136719 C 272.214844 151.207031 273.957031 151.449219 274.886719 152.667969 C 278.652344 157.625 281.117188 162.886719 282.285156 168.4375 C 283.449219 174 283.308594 179.816406 281.871094 185.886719 L 281.859375 185.886719 C 281.71875 186.484375 281.378906 187.042969 280.851562 187.449219 C 277.992188 189.660156 275.582031 191.988281 273.632812 194.425781 Z M 273.511719 194.597656 " fill-opacity="1" fill-rule="evenodd"/><path fill="#ffffff" d="M 192.15625 194.242188 L 191.554688 194.242188 L 195.132812 293.53125 C 195.417969 301.578125 191.695312 306.847656 186.78125 309.308594 C 184.675781 310.363281 182.371094 310.890625 180.09375 310.890625 L 180.09375 310.878906 C 177.800781 310.878906 175.5 310.355469 173.410156 309.308594 C 168.488281 306.84375 164.757812 301.570312 165.042969 293.53125 L 168.621094 194.242188 L 168.023438 194.242188 C 166.839844 194.242188 165.828125 193.507812 165.421875 192.464844 L 160.222656 181.535156 C 152.5625 181.964844 144.519531 186.808594 136.105469 196.070312 C 135.074219 197.207031 133.308594 197.289062 132.171875 196.253906 C 131.496094 195.640625 131.191406 194.773438 131.273438 193.933594 C 131.601562 184.421875 135.003906 175.117188 141.113281 168.195312 C 146.722656 161.839844 154.578125 157.488281 164.414062 156.796875 L 192.15625 156.789062 C 193.109375 156.789062 193.949219 157.265625 194.453125 157.996094 L 198.707031 163.277344 L 203.605469 163.277344 L 207.976562 159.246094 C 208.511719 158.753906 209.191406 158.511719 209.867188 158.511719 L 221.695312 158.507812 C 223.234375 158.507812 224.488281 159.757812 224.488281 161.300781 L 224.472656 161.5625 L 224.398438 175.519531 L 224.476562 189.726562 C 224.480469 191.261719 223.242188 192.511719 221.707031 192.515625 L 221.695312 192.515625 L 221.695312 192.527344 L 209.867188 192.527344 C 209.070312 192.527344 208.355469 192.195312 207.847656 191.664062 L 203.609375 187.753906 L 198.707031 187.753906 L 194.324219 193.195312 C 193.777344 193.878906 192.96875 194.234375 192.15625 194.234375 Z M 192.15625 194.242188 " fill-opacity="1" fill-rule="evenodd"/><g clip-path="url(#d3654afe9d)"><path fill="#ffffff" d="M 102.8125 238.417969 L 102.8125 175.117188 L 97.863281 165.957031 C 97.496094 165.269531 97.445312 164.5 97.65625 163.8125 L 103.296875 142.035156 C 103.632812 140.746094 104.808594 139.90625 106.082031 139.949219 L 109.808594 139.925781 C 109.921875 139.90625 110.042969 139.902344 110.164062 139.902344 L 110.429688 139.914062 L 111.578125 139.914062 L 111.832031 139.925781 L 115.769531 139.953125 C 117.058594 139.957031 118.144531 140.84375 118.449219 142.035156 L 124.125 163.945312 C 124.308594 164.652344 124.199219 165.363281 123.882812 165.960938 L 118.941406 175.117188 L 118.941406 238.421875 L 128.261719 238.421875 C 129.804688 238.421875 131.054688 239.667969 131.054688 241.210938 L 131.054688 251.890625 C 131.050781 252.785156 130.617188 253.664062 129.820312 254.203125 C 128.644531 255 127.699219 256.066406 127.050781 257.289062 C 126.402344 258.507812 126.050781 259.886719 126.050781 261.316406 C 126.050781 262.746094 126.398438 264.125 127.050781 265.34375 C 127.679688 266.535156 128.59375 267.578125 129.726562 268.367188 C 130.523438 268.859375 131.054688 269.738281 131.054688 270.742188 L 131.054688 309.394531 C 131.054688 314.84375 128.824219 319.796875 125.238281 323.386719 L 125.230469 323.382812 C 121.636719 326.972656 116.683594 329.203125 111.242188 329.203125 C 105.882812 329.203125 100.996094 327.039062 97.414062 323.539062 L 97.253906 323.386719 C 93.664062 319.796875 91.4375 314.84375 91.4375 309.394531 L 91.4375 270.742188 C 91.441406 269.847656 91.871094 268.96875 92.667969 268.429688 C 93.847656 267.636719 94.792969 266.566406 95.441406 265.34375 C 96.089844 264.125 96.445312 262.746094 96.445312 261.316406 C 96.445312 259.886719 96.09375 258.507812 95.445312 257.285156 C 94.8125 256.09375 93.898438 255.054688 92.765625 254.265625 C 91.96875 253.773438 91.4375 252.894531 91.4375 251.886719 L 91.4375 241.210938 C 91.4375 239.667969 92.691406 238.417969 94.230469 238.417969 Z M 102.8125 238.417969 " fill-opacity="1" fill-rule="evenodd"/></g><path fill="#ffffff" d="M 263.644531 271.992188 L 263.640625 201.378906 C 263.640625 200.976562 263.726562 200.589844 263.882812 200.242188 C 265.117188 197.054688 266.871094 194.019531 269.128906 191.15625 L 269.28125 190.976562 C 271.332031 188.410156 273.789062 185.976562 276.648438 183.683594 C 277.703125 178.738281 277.765625 174.035156 276.832031 169.574219 C 276.175781 166.457031 275.035156 163.433594 273.402344 160.515625 L 267.171875 177.753906 C 266.644531 179.199219 265.050781 179.945312 263.605469 179.421875 L 249.332031 174.289062 C 247.914062 173.777344 247.160156 172.234375 247.625 170.8125 L 253.234375 153.671875 C 249.996094 155.632812 246.894531 158.253906 244.328125 161.265625 C 241.804688 164.226562 239.824219 167.546875 238.789062 170.953125 C 237.800781 174.203125 237.675781 177.550781 238.777344 180.730469 C 239.683594 183.335938 241.433594 185.886719 244.21875 188.257812 C 244.355469 188.375 244.472656 188.5 244.582031 188.632812 C 245.640625 189.847656 246.585938 191.167969 247.421875 192.585938 C 248.28125 194.0625 249.019531 195.621094 249.617188 197.261719 C 249.734375 197.574219 249.789062 197.898438 249.789062 198.21875 L 249.789062 268.828125 C 249.789062 269.234375 249.703125 269.617188 249.546875 269.96875 C 248.3125 273.160156 246.5625 276.1875 244.304688 279.054688 C 242.230469 281.675781 239.726562 284.167969 236.78125 286.527344 C 235.726562 291.46875 235.667969 296.171875 236.601562 300.632812 C 237.253906 303.753906 238.398438 306.773438 240.03125 309.695312 L 246.261719 292.457031 C 246.785156 291.011719 248.378906 290.269531 249.828125 290.789062 L 264.101562 295.925781 C 265.519531 296.433594 266.273438 297.976562 265.804688 299.398438 L 260.199219 316.542969 C 263.4375 314.578125 266.539062 311.957031 269.101562 308.949219 C 271.628906 305.984375 273.609375 302.664062 274.644531 299.257812 C 275.632812 296.007812 275.757812 292.660156 274.65625 289.480469 C 273.746094 286.878906 272 284.328125 269.214844 281.953125 C 269.078125 281.835938 268.957031 281.710938 268.851562 281.578125 C 266.699219 279.113281 265.023438 276.238281 263.816406 272.953125 C 263.699219 272.632812 263.644531 272.308594 263.644531 271.992188 Z M 263.644531 271.992188 " fill-opacity="1" fill-rule="evenodd"/><path fill="#ffffff" d="M 190.828125 188.660156 L 195.085938 183.375 C 195.589844 182.648438 196.429688 182.171875 197.378906 182.171875 L 204.6875 182.171875 C 205.363281 182.179688 206.039062 182.421875 206.578125 182.914062 L 210.949219 186.941406 L 218.902344 186.941406 C 218.859375 179.300781 218.859375 171.726562 218.902344 164.085938 L 210.949219 164.085938 L 206.710938 167.992188 C 206.203125 168.523438 205.488281 168.855469 204.691406 168.855469 L 197.382812 168.847656 C 196.570312 168.847656 195.765625 168.492188 195.210938 167.808594 L 190.828125 162.367188 L 164.636719 162.367188 C 156.464844 162.980469 149.933594 166.601562 145.28125 171.878906 C 141.679688 175.960938 139.175781 181.03125 137.867188 186.472656 C 145.964844 179.285156 153.96875 175.777344 161.878906 175.949219 C 162.957031 175.914062 164 176.507812 164.492188 177.546875 L 169.777344 188.660156 Z M 190.828125 188.660156 " fill-opacity="1" fill-rule="evenodd"/><path fill="#ffffff" d="M 189.574219 293.730469 L 185.988281 194.242188 L 174.191406 194.242188 L 170.609375 293.730469 C 170.410156 299.25 172.773438 302.773438 175.894531 304.339844 C 177.203125 304.992188 178.648438 305.320312 180.097656 305.320312 L 180.097656 305.308594 C 181.5625 305.308594 183.003906 304.988281 184.296875 304.34375 C 187.414062 302.78125 189.769531 299.257812 189.574219 293.730469 Z M 189.574219 293.730469 " fill-opacity="1" fill-rule="evenodd"/><path fill="#ffffff" d="M 113.699219 173.105469 L 118.46875 164.273438 L 113.601562 145.496094 L 111.820312 145.484375 L 111.589844 145.492188 L 111.265625 145.476562 L 108.144531 145.496094 L 103.285156 164.273438 L 107.960938 172.9375 C 108.234375 173.367188 108.394531 173.878906 108.394531 174.425781 L 108.394531 238.421875 L 113.359375 238.421875 L 113.359375 174.425781 C 113.363281 173.976562 113.46875 173.523438 113.699219 173.105469 Z M 113.699219 173.105469 " fill-opacity="1" fill-rule="evenodd"/><path fill="#ffffff" d="M 116.152344 244.003906 L 97.023438 244.003906 L 97.023438 250.515625 C 98.40625 251.6875 99.539062 253.101562 100.371094 254.671875 C 101.445312 256.691406 102.027344 258.96875 102.027344 261.316406 C 102.027344 263.664062 101.445312 265.941406 100.371094 267.960938 C 99.539062 269.53125 98.40625 270.945312 97.023438 272.117188 L 97.023438 309.394531 C 97.023438 313.304688 98.621094 316.859375 101.203125 319.441406 L 101.332031 319.574219 C 103.894531 322.074219 107.398438 323.621094 111.25 323.621094 C 115.167969 323.621094 118.722656 322.023438 121.296875 319.449219 L 121.296875 319.441406 C 123.875 316.859375 125.476562 313.304688 125.476562 309.394531 L 125.476562 272.117188 C 124.09375 270.945312 122.960938 269.53125 122.128906 267.960938 C 121.054688 265.941406 120.472656 263.664062 120.472656 261.316406 C 120.472656 258.96875 121.054688 256.691406 122.128906 254.671875 C 122.960938 253.101562 124.09375 251.6875 125.476562 250.515625 L 125.476562 244.003906 Z M 113.742188 274.664062 C 113.742188 273.121094 114.992188 271.871094 116.535156 271.871094 C 118.074219 271.871094 119.324219 273.121094 119.324219 274.664062 L 119.324219 312.546875 C 119.324219 314.089844 118.074219 315.339844 116.535156 315.339844 C 114.992188 315.339844 113.742188 314.089844 113.742188 312.546875 Z M 103.167969 274.664062 C 103.167969 273.121094 104.421875 271.871094 105.960938 271.871094 C 107.503906 271.871094 108.75 273.121094 108.75 274.664062 L 108.75 312.546875 C 108.75 314.089844 107.503906 315.339844 105.960938 315.339844 C 104.421875 315.339844 103.167969 314.089844 103.167969 312.546875 Z M 103.167969 274.664062 " fill-opacity="1" fill-rule="evenodd"/><path stroke-linecap="butt" transform="matrix(-0.00742815, -0.749963, 0.749963, -0.00742815, 68.311867, 346.091228)" fill="none" stroke-linejoin="miter" d="M 0.000213413 7.00119 L 266.69039 7.001919 " stroke="#ffffff" stroke-width="14" stroke-opacity="1" stroke-miterlimit="4"/><path stroke-linecap="butt" transform="matrix(-0.749993, -0.00329617, 0.00329617, -0.749993, 309.020639, 348.204119)" fill="none" stroke-linejoin="miter" d="M 0.000996846 7.001389 L 320.342658 6.999771 " stroke="#ffffff" stroke-width="14" stroke-opacity="1" stroke-miterlimit="4"/><path stroke-linecap="butt" transform="matrix(0.53033, -0.53033, 0.53033, 0.53033, 65.921873, 146.435616)" fill="none" stroke-linejoin="miter" d="M -0.00177435 6.999189 L 225.594766 6.999189 " stroke="#ffffff" stroke-width="14" stroke-opacity="1" stroke-miterlimit="4"/><path stroke-linecap="butt" transform="matrix(0.53033, 0.53033, -0.53033, 0.53033, 184.938434, 26.82703)" fill="none" stroke-linejoin="miter" d="M 0.000152288 6.999325 L 225.545132 6.999325 " stroke="#ffffff" stroke-width="14" stroke-opacity="1" stroke-miterlimit="4"/></svg>

<svg xmlns="http://www.w3.org/2000/svg" width="500" height="500" viewBox="0 0 375 375"><defs><clipPath id="a"><path d="M91 139.902h41v189H91Zm0 0"/></clipPath></defs><path fill="#fff" fill-rule="evenodd" d="M273.512 194.598q-2.748 3.486-4.29 7.3v69.594c.946 2.438 2.196 4.551 3.75 6.352 3.5 3.015 5.731 6.344 6.934 9.804v.012c1.516 4.371 1.371 8.883.055 13.211-1.27 4.184-3.637 8.184-6.633 11.695-4.601 5.403-10.762 9.73-16.742 11.84a2.77 2.77 0 0 1-1.914.074 2.79 2.79 0 0 1-1.793-3.511l6.793-20.73-9.125-3.282-7.172 19.848a2.84 2.84 0 0 1-.937 1.261 2.78 2.78 0 0 1-3.895-.53c-3.762-4.962-6.23-10.22-7.395-15.77-1.168-5.563-1.027-11.383.415-17.454l.007.004a2.74 2.74 0 0 1 1.004-1.558c2.91-2.25 5.363-4.633 7.348-7.153 1.832-2.32 3.258-4.757 4.285-7.296V198.71c-.46-1.2-.992-2.3-1.582-3.316a20.5 20.5 0 0 0-2.168-3.032c-3.496-3.02-5.73-6.347-6.93-9.812v-.008c-1.52-4.375-1.375-8.883-.058-13.215 1.273-4.18 3.636-8.18 6.633-11.691 4.601-5.403 10.765-9.735 16.738-11.844a2.786 2.786 0 0 1 3.707 3.441l-6.79 20.73 9.126 3.282 7.176-19.848c.18-.484.496-.925.937-1.261a2.777 2.777 0 0 1 3.89.531c3.766 4.957 6.231 10.219 7.4 15.77q1.743 8.343-.415 17.449h-.012a2.77 2.77 0 0 1-1.007 1.562c-2.86 2.211-5.27 4.54-7.22 6.977Zm-81.356-.356h-.601l3.578 99.29c.285 8.046-3.438 13.316-8.352 15.777a15 15 0 0 1-6.687 1.582v-.012c-2.293 0-4.594-.524-6.684-1.57-4.922-2.465-8.652-7.739-8.367-15.778l3.578-99.289h-.598a2.79 2.79 0 0 1-2.601-1.777l-5.2-10.93c-7.66.43-15.702 5.274-24.117 14.535a2.785 2.785 0 0 1-3.933.184 2.76 2.76 0 0 1-.899-2.32c.329-9.512 3.73-18.817 9.84-25.739 5.61-6.355 13.465-10.707 23.301-11.398l27.742-.008c.953 0 1.793.477 2.297 1.207l4.254 5.281h4.898l4.372-4.03a2.8 2.8 0 0 1 1.89-.735l11.828-.004c1.54 0 2.793 1.25 2.793 2.793l-.015.262-.075 13.957.079 14.207a2.78 2.78 0 0 1-2.77 2.789h-.012v.011h-11.828a2.78 2.78 0 0 1-2.02-.863l-4.238-3.91h-4.902l-4.383 5.441a2.77 2.77 0 0 1-2.168 1.04Zm0 0"/><g clip-path="url(#a)"><path fill="#fff" fill-rule="evenodd" d="M102.813 238.418v-63.3l-4.95-9.161a2.8 2.8 0 0 1-.207-2.144l5.64-21.778a2.784 2.784 0 0 1 2.786-2.086l3.727-.023c.113-.02.234-.024.355-.024l.266.012h1.148l.254.012 3.938.027a2.78 2.78 0 0 1 2.68 2.082l5.675 21.91a2.8 2.8 0 0 1-.242 2.016l-4.942 9.156v63.305h9.32a2.79 2.79 0 0 1 2.794 2.789v10.68a2.8 2.8 0 0 1-1.235 2.312 8.594 8.594 0 0 0-.093 14.164 2.79 2.79 0 0 1 1.328 2.375v38.653c0 5.449-2.23 10.402-5.817 13.992l-.008-.004c-3.593 3.59-8.546 5.82-13.988 5.82-5.36 0-10.246-2.164-13.828-5.664l-.16-.152c-3.59-3.59-5.817-8.543-5.817-13.992v-38.653a2.8 2.8 0 0 1 1.231-2.312 8.54 8.54 0 0 0 2.773-3.086 8.6 8.6 0 0 0 .004-8.059 8.6 8.6 0 0 0-2.68-3.02 2.79 2.79 0 0 1-1.328-2.378V241.21a2.795 2.795 0 0 1 2.793-2.793Zm0 0"/></g><path fill="#fff" fill-rule="evenodd" d="m263.645 271.992-.004-70.613c0-.402.086-.79.242-1.137 1.234-3.187 2.988-6.222 5.246-9.086l.152-.18c2.051-2.566 4.508-5 7.367-7.292q1.584-7.419.184-14.11c-.656-3.117-1.797-6.14-3.43-9.058l-6.23 17.238a2.786 2.786 0 0 1-3.567 1.668l-14.273-5.133a2.783 2.783 0 0 1-1.707-3.476l5.61-17.141c-3.239 1.96-6.34 4.582-8.907 7.594-2.523 2.96-4.504 6.28-5.539 9.687-.988 3.25-1.113 6.598-.012 9.777.907 2.606 2.657 5.157 5.442 7.528.136.117.254.242.363.375a26.4 26.4 0 0 1 2.84 3.953 29 29 0 0 1 2.195 4.676c.117.312.172.636.172.957v70.61c0 .405-.086.788-.242 1.14q-1.853 4.786-5.242 9.086c-2.075 2.62-4.578 5.113-7.524 7.472q-1.58 7.414-.18 14.106.98 4.68 3.43 9.062l6.23-17.238a2.786 2.786 0 0 1 3.567-1.668l14.274 5.137a2.77 2.77 0 0 1 1.703 3.472l-5.606 17.145a37.3 37.3 0 0 0 8.903-7.594c2.527-2.965 4.507-6.285 5.543-9.691.988-3.25 1.113-6.598.011-9.778-.91-2.601-2.656-5.152-5.441-7.527a2.7 2.7 0 0 1-.363-.375c-2.153-2.465-3.829-5.34-5.036-8.625a2.8 2.8 0 0 1-.171-.96m-72.817-83.333 4.258-5.285a2.79 2.79 0 0 1 2.293-1.203h7.309a2.84 2.84 0 0 1 1.89.742l4.371 4.027h7.953c-.043-7.64-.043-15.214 0-22.855h-7.953l-4.238 3.906a2.78 2.78 0 0 1-2.02.863l-7.308-.007a2.79 2.79 0 0 1-2.172-1.04l-4.383-5.44h-26.191c-8.172.612-14.703 4.234-19.356 9.51-3.601 4.083-6.105 9.153-7.414 14.595q12.147-10.782 24.012-10.524a2.79 2.79 0 0 1 2.613 1.598l5.285 11.113Zm-1.254 105.07-3.586-99.488h-11.797l-3.582 99.488c-.199 5.52 2.164 9.043 5.286 10.61a9.4 9.4 0 0 0 4.203.98v-.011c1.464 0 2.906-.32 4.199-.965 3.117-1.563 5.473-5.086 5.277-10.614M113.7 173.105l4.769-8.832-4.867-18.777-1.782-.012-.23.008-.324-.015-3.121.02-4.86 18.776 4.676 8.665c.273.43.434.94.434 1.488v63.996h4.964v-63.996c.004-.45.11-.903.34-1.32m2.453 70.898H97.023v6.512a14.1 14.1 0 0 1 3.348 4.156 14.15 14.15 0 0 1 1.656 6.644 14.15 14.15 0 0 1-1.656 6.645 14.1 14.1 0 0 1-3.348 4.156v37.278c0 3.91 1.598 7.464 4.18 10.046l.129.133a14.17 14.17 0 0 0 9.918 4.047c3.918 0 7.473-1.598 10.047-4.172v-.008c2.578-2.582 4.18-6.136 4.18-10.046v-37.278a14.1 14.1 0 0 1-3.348-4.156 14.15 14.15 0 0 1-1.656-6.645c0-2.347.582-4.625 1.656-6.644a14.1 14.1 0 0 1 3.348-4.156v-6.512Zm-2.41 30.66a2.792 2.792 0 1 1 5.582 0v37.883a2.792 2.792 0 1 1-5.582 0Zm-10.574 0a2.795 2.795 0 0 1 2.793-2.793 2.79 2.79 0 0 1 2.789 2.793v37.883a2.79 2.79 0 0 1-2.79 2.793 2.795 2.795 0 0 1-2.792-2.793Zm0 0"/><path fill="none" stroke="#fff" stroke-width="10.5" d="m73.562 346.04-1.98-200.009m237.461 196.922-240.254-1.055m.844-191.75 119.64-119.64m-8.046.032L300.84 150.151"/></svg>
